static/assets/img/icon-facebook.svg

<?xml version="1.0" encoding="utf-8"?>
<svg width="18px" height="18px" viewBox="0 0 18 18" version="1.1" xmlns:xlink="http://www.w3.org/1999/xlink" xmlns="http://www.w3.org/2000/svg">
  <desc>Created with Lunacy</desc>
  <defs>
    <path d="M3.999 0L14.001 0Q14.1975 0 14.393 0.0192563Q14.5885 0.0385126 14.7812 0.0768396Q14.9738 0.115167 15.1618 0.172196Q15.3498 0.229224 15.5313 0.304406Q15.7129 0.379587 15.8861 0.472197Q16.0594 0.564807 16.2227 0.673953Q16.3861 0.783099 16.5379 0.907731Q16.6898 1.03236 16.8287 1.17128Q16.9676 1.3102 17.0923 1.46206Q17.2169 1.61393 17.326 1.77727Q17.4352 1.94062 17.5278 2.11388Q17.6204 2.28715 17.6956 2.46865Q17.7708 2.65015 17.8278 2.83815Q17.8848 3.02615 17.9232 3.21883Q17.9615 3.41152 17.9807 3.60703Q18 3.80254 18 3.999L18 14.001Q18 14.1975 17.9807 14.393Q17.9615 14.5885 17.9232 14.7812Q17.8848 14.9738 17.8278 15.1618Q17.7708 15.3498 17.6956 15.5313Q17.6204 15.7129 17.5278 15.8861Q17.4352 16.0594 17.326 16.2227Q17.2169 16.3861 17.0923 16.5379Q16.9676 16.6898 16.8287 16.8287Q16.6898 16.9676 16.5379 17.0923Q16.3861 17.2169 16.2227 17.326Q16.0594 17.4352 15.8861 17.5278Q15.7129 17.6204 15.5313 17.6956Q15.3498 17.7708 15.1618 17.8278Q14.9738 17.8848 14.7812 17.9232Q14.5885 17.9615 14.393 17.9807Q14.1975 18 14.001 18L3.999 18Q3.80254 18 3.60703 17.9807Q3.41152 17.9615 3.21883 17.9232Q3.02615 17.8848 2.83815 17.8278Q2.65015 17.7708 2.46865 17.6956Q2.28715 17.6204 2.11388 17.5278Q1.94062 17.4352 1.77727 17.326Q1.61393 17.2169 1.46206 17.0923Q1.3102 16.9676 1.17128 16.8287Q1.03236 16.6898 0.907731 16.5379Q0.783099 16.3861 0.673953 16.2227Q0.564807 16.0594 0.472197 15.8861Q0.379587 15.7129 0.304406 15.5313Q0.229224 15.3498 0.172196 15.1618Q0.115167 14.9738 0.0768396 14.7812Q0.0385126 14.5885 0.0192563 14.393Q0 14.1975 0 14.001L0 3.999Q0 3.80254 0.0192563 3.60703Q0.0385126 3.41152 0.0768396 3.21883Q0.115167 3.02615 0.172196 2.83815Q0.229224 2.65015 0.304406 2.46865Q0.379587 2.28715 0.472197 2.11388Q0.564807 1.94062 0.673953 1.77727Q0.783099 1.61393 0.907731 1.46206Q1.03236 1.3102 1.17128 1.17128Q1.3102 1.03236 1.46206 0.907731Q1.61393 0.783099 1.77727 0.673953Q1.94062 0.564807 2.11388 0.472197Q2.28715 0.379587 2.46865 0.304406Q2.65015 0.229224 2.83815 0.172196Q3.02615 0.115167 3.21883 0.0768396Q3.41152 0.0385126 3.60703 0.0192563Q3.80254 0 3.999 0Z" id="path_1" />
    <clipPath id="mask_1">
      <use xlink:href="#path_1" />
    </clipPath>
  </defs>
  <g id="icon-facebook">
    <path d="M3.999 0L14.001 0Q14.1975 0 14.393 0.0192563Q14.5885 0.0385126 14.7812 0.0768396Q14.9738 0.115167 15.1618 0.172196Q15.3498 0.229224 15.5313 0.304406Q15.7129 0.379587 15.8861 0.472197Q16.0594 0.564807 16.2227 0.673953Q16.3861 0.783099 16.5379 0.907731Q16.6898 1.03236 16.8287 1.17128Q16.9676 1.3102 17.0923 1.46206Q17.2169 1.61393 17.326 1.77727Q17.4352 1.94062 17.5278 2.11388Q17.6204 2.28715 17.6956 2.46865Q17.7708 2.65015 17.8278 2.83815Q17.8848 3.02615 17.9232 3.21883Q17.9615 3.41152 17.9807 3.60703Q18 3.80254 18 3.999L18 14.001Q18 14.1975 17.9807 14.393Q17.9615 14.5885 17.9232 14.7812Q17.8848 14.9738 17.8278 15.1618Q17.7708 15.3498 17.6956 15.5313Q17.6204 15.7129 17.5278 15.8861Q17.4352 16.0594 17.326 16.2227Q17.2169 16.3861 17.0923 16.5379Q16.9676 16.6898 16.8287 16.8287Q16.6898 16.9676 16.5379 17.0923Q16.3861 17.2169 16.2227 17.326Q16.0594 17.4352 15.8861 17.5278Q15.7129 17.6204 15.5313 17.6956Q15.3498 17.7708 15.1618 17.8278Q14.9738 17.8848 14.7812 17.9232Q14.5885 17.9615 14.393 17.9807Q14.1975 18 14.001 18L3.999 18Q3.80254 18 3.60703 17.9807Q3.41152 17.9615 3.21883 17.9232Q3.02615 17.8848 2.83815 17.8278Q2.65015 17.7708 2.46865 17.6956Q2.28715 17.6204 2.11388 17.5278Q1.94062 17.4352 1.77727 17.326Q1.61393 17.2169 1.46206 17.0923Q1.3102 16.9676 1.17128 16.8287Q1.03236 16.6898 0.907731 16.5379Q0.783099 16.3861 0.673953 16.2227Q0.564807 16.0594 0.472197 15.8861Q0.379587 15.7129 0.304406 15.5313Q0.229224 15.3498 0.172196 15.1618Q0.115167 14.9738 0.0768396 14.7812Q0.0385126 14.5885 0.0192563 14.393Q0 14.1975 0 14.001L0 3.999Q0 3.80254 0.0192563 3.60703Q0.0385126 3.41152 0.0768396 3.21883Q0.115167 3.02615 0.172196 2.83815Q0.229224 2.65015 0.304406 2.46865Q0.379587 2.28715 0.472197 2.11388Q0.564807 1.94062 0.673953 1.77727Q0.783099 1.61393 0.907731 1.46206Q1.03236 1.3102 1.17128 1.17128Q1.3102 1.03236 1.46206 0.907731Q1.61393 0.783099 1.77727 0.673953Q1.94062 0.564807 2.11388 0.472197Q2.28715 0.379587 2.46865 0.304406Q2.65015 0.229224 2.83815 0.172196Q3.02615 0.115167 3.21883 0.0768396Q3.41152 0.0385126 3.60703 0.0192563Q3.80254 0 3.999 0Z" id="Background" fill="#000000" fill-rule="evenodd" stroke="none" />
    <g clip-path="url(#mask_1)">
      <path d="M14 0L4 0C1.791 0 0 1.791 0 4L0 14C0 16.209 1.791 18 4 18L9.621 18L9.621 11.039L7.278 11.039L7.278 8.314L9.621 8.314L9.621 6.309C9.621 3.985 11.042 2.718 13.116 2.718C13.815 2.716 14.513 2.752 15.208 2.823L15.208 5.253L13.78 5.253C12.65 5.253 12.43 5.787 12.43 6.575L12.43 8.31L15.13 8.31L14.779 11.035L12.414 11.035L12.414 18L14 18C16.209 18 18 16.209 18 14L18 4C18 1.791 16.209 0 14 0L14 0Z" id="Shape" fill="#FFFFFF" fill-rule="evenodd" stroke="none" />
    </g>
  </g>
</svg>

<svg width="18" height="18" xmlns:xlink="http://www.w3.org/1999/xlink" xmlns="http://www.w3.org/2000/svg"><defs><clipPath id="mask_1"><use xlink:href="#path_1"/></clipPath><path d="M3.999 0h10.002q.197 0 .392.02.195.019.388.057.193.038.38.095.189.057.37.132.182.076.355.168.173.093.337.202.163.11.315.234.152.124.29.263.14.14.264.291.125.152.234.315.11.164.202.337.092.173.168.355.075.181.132.37.057.187.095.38.039.193.058.388.019.196.019.392v10.002q0 .197-.02.392-.018.195-.057.388-.038.193-.095.38-.057.189-.132.37-.076.182-.168.355-.093.173-.202.337-.11.163-.234.315-.124.152-.263.29-.14.14-.291.264-.152.125-.315.234-.164.11-.337.202-.173.092-.355.168-.181.075-.37.132-.187.057-.38.095-.193.039-.388.058-.196.019-.392.019H3.999q-.196 0-.392-.02-.195-.018-.388-.057-.193-.038-.38-.095-.189-.057-.37-.132-.182-.076-.355-.168-.173-.093-.337-.202-.163-.11-.315-.234-.152-.124-.29-.263-.14-.14-.264-.291-.125-.152-.234-.315-.11-.164-.202-.337-.092-.173-.168-.355-.075-.181-.132-.37-.057-.187-.095-.38t-.058-.388Q0 14.197 0 14.001V3.999q0-.196.02-.392.019-.195.057-.388.038-.193.095-.38.057-.189.132-.37.076-.182.168-.355.093-.173.202-.337.11-.163.234-.315.124-.152.263-.29.14-.14.291-.264.152-.125.315-.234.164-.11.337-.202.173-.092.355-.168.181-.075.37-.132.187-.057.38-.095t.388-.058Q3.803 0 3.999 0z" id="path_1"/></defs><g id="icon-facebook"><path d="M3.999 0h10.002q.197 0 .392.02.195.019.388.057.193.038.38.095.189.057.37.132.182.076.355.168.173.093.337.202.163.11.315.234.152.124.29.263.14.14.264.291.125.152.234.315.11.164.202.337.092.173.168.355.075.181.132.37.057.187.095.38.039.193.058.388.019.196.019.392v10.002q0 .197-.02.392-.018.195-.057.388-.038.193-.095.38-.057.189-.132.37-.076.182-.168.355-.093.173-.202.337-.11.163-.234.315-.124.152-.263.29-.14.14-.291.264-.152.125-.315.234-.164.11-.337.202-.173.092-.355.168-.181.075-.37.132-.187.057-.38.095-.193.039-.388.058-.196.019-.392.019H3.999q-.196 0-.392-.02-.195-.018-.388-.057-.193-.038-.38-.095-.189-.057-.37-.132-.182-.076-.355-.168-.173-.093-.337-.202-.163-.11-.315-.234-.152-.124-.29-.263-.14-.14-.264-.291-.125-.152-.234-.315-.11-.164-.202-.337-.092-.173-.168-.355-.075-.181-.132-.37-.057-.187-.095-.38t-.058-.388Q0 14.197 0 14.001V3.999q0-.196.02-.392.019-.195.057-.388.038-.193.095-.38.057-.189.132-.37.076-.182.168-.355.093-.173.202-.337.11-.163.234-.315.124-.152.263-.29.14-.14.291-.264.152-.125.315-.234.164-.11.337-.202.173-.092.355-.168.181-.075.37-.132.187-.057.38-.095t.388-.058Q3.803 0 3.999 0z" id="Background" fill="#000" fill-rule="evenodd" stroke="none"/><g clip-path="url(#mask_1)"><path d="M14 0H4a4 4 0 00-4 4v10a4 4 0 004 4h5.621v-6.961H7.278V8.314h2.343V6.309c0-2.324 1.421-3.591 3.495-3.591.699-.002 1.397.034 2.092.105v2.43H13.78c-1.13 0-1.35.534-1.35 1.322V8.31h2.7l-.351 2.725h-2.365V18H14a4 4 0 004-4V4a4 4 0 00-4-4z" id="Shape" fill="#FFF" fill-rule="evenodd" stroke="none"/></g></g></svg>
